X: 408
T: Bluegrass Special
C:Bill Monroe
B: jims roots
M:2/4
L:1/16
Q: 1/4=100
K:A
V:1 
A |"A" =c{B}(cB)A =c{B}(cB)A | =c{B}(cB)A E3A | =c{B}(cB)A =c{B}(cB)A | =cecB AFEF |
"D"DFA=c BAFA | =c2B2 AF2E | "A"A2A2 A,CEE | A2A2 A2AA |
"E"=cABc AE2E | =c2B2 AFEF | "A"[E2A][E2A] [EA][E2A][EA] | [E4A]z4 =c^c ||
"A"A2=c^c A2=c^c | A{=c}^cA{=c}^c A=c^cA | [A2c][A2c] [Ac][A2c][Ac] | "A7"[=G2c][G2c] [G2c][Gc]A |
"D"dfaa- aaa2 | (3ac'a ae (3^dee (3=c^cc | "A"A2AA (3E^DD {=C}^CA | A2AA A2AA |
"E"Ge2e e2ez | ac'ae ^de=c/c/^c | "A"A2AA (3E^DD {=C}^CA | A2A2 A2AD ||
"A"A,CEF Acee | a=g2[Ae]- [Ae]cAA | A,CEF Ace2 | a2=ge e=c(c/B/)A |
"D"DFA=c BAFA | =c{B}cBA c{B}cBA | "A"E2ED A,CEF | A2A2 A2AA |
"E"=cABc AE2E | =c2B2 AFEF | "A"[E2A][C2E2A2e2] [CEAe][C2E2A2e2][CEAe] | [C4E4A4e4] ||
% abcbook-tune_id 6298c2459688a826a38abc73


% abcbook-boost 0
% abcbook-tablature 
% abcbook-transpose 
% abcbook-lastupdated 1654178373403
% abcbook-soundfonts 
% abcbook-repeats 1


